packages/core/src/svgs/tokens/mono/SUB.svg

<svg width="24" height="24" viewBox="0 0 24 24" fill="none" xmlns="http://www.w3.org/2000/svg">
<path d="M8.25874 2.04604C8.29819 2.01617 8.34632 2 8.39581 2C8.44529 2 8.49341 2.01617 8.53287 2.04604L9.67582 2.92548C9.71233 2.9531 9.73978 2.99093 9.75474 3.03418C9.7697 3.07743 9.77162 3.12415 9.75996 3.16843C9.74472 3.22733 9.70725 3.27798 9.65523 3.3096C9.61652 3.33302 9.57164 3.34425 9.52634 3.34183C9.48118 3.33942 9.43781 3.32348 9.40171 3.29608L8.39581 2.52723L5.10276 5.02731L19.5538 16C19.5824 16.0217 19.6054 16.0497 19.6214 16.0819C19.6371 16.114 19.6452 16.1495 19.645 16.1853C19.645 16.2211 19.6369 16.2565 19.6209 16.2886C19.6052 16.3208 19.5822 16.3488 19.5538 16.3706L18.4925 17.1766C18.4686 17.1947 18.4412 17.208 18.4121 17.2154C18.3829 17.223 18.3525 17.2246 18.3227 17.2202C18.293 17.2158 18.2643 17.2055 18.2385 17.19C18.2128 17.1744 18.1903 17.1538 18.1726 17.1295C18.1363 17.0802 18.121 17.0189 18.1295 16.9583C18.1381 16.8978 18.17 16.8432 18.2184 16.806L19.0414 16.1853L4.58156 5.21261C4.55286 5.19103 4.52962 5.16303 4.51369 5.13086C4.49775 5.09868 4.48957 5.06322 4.48979 5.02731C4.48985 4.99146 4.49814 4.95608 4.51406 4.92395C4.52997 4.89182 4.55307 4.86378 4.58156 4.84201L8.23992 2.04604H8.25874ZM11.9259 2.04604C11.9653 2.01617 12.0135 2 12.063 2C12.1124 2 12.1606 2.01617 12.2 2.04604L19.5533 7.47798C19.5825 7.49964 19.6064 7.5279 19.6227 7.56048C19.6391 7.59307 19.6474 7.62904 19.6473 7.66549C19.6472 7.70194 19.6384 7.73784 19.6216 7.77026C19.605 7.80269 19.581 7.83072 19.5515 7.85211C19.5121 7.88034 19.4646 7.89519 19.4161 7.89446H15.7395C15.6901 7.89371 15.6422 7.87746 15.6025 7.84799L10.7824 4.342C10.7582 4.32372 10.7379 4.30084 10.7227 4.27469C10.7075 4.24854 10.6976 4.21963 10.6935 4.18964C10.6873 4.14455 10.6943 4.09861 10.7136 4.05745C10.7331 4.01628 10.7641 3.98168 10.803 3.95787C10.8418 3.93456 10.8869 3.92346 10.9322 3.92597C10.9774 3.92849 11.021 3.94451 11.0571 3.97198L15.8131 7.29386H18.7308L12.0718 2.52723L7.46225 6.02734C7.43219 6.05034 7.39686 6.06546 7.35947 6.07132C7.32208 6.07719 7.28383 6.07361 7.24817 6.06093C7.21252 6.04824 7.18059 6.02686 7.15531 5.99869C7.13004 5.97053 7.1122 5.9365 7.10341 5.89969C7.09254 5.85544 7.09477 5.80896 7.1098 5.76594C7.12484 5.72291 7.15204 5.68518 7.18812 5.65733L11.9259 2.04604ZM5.59631 6.8609C5.62027 6.84256 5.64767 6.82921 5.67688 6.8216C5.70609 6.81401 5.73652 6.81232 5.76638 6.81665C5.79625 6.82099 5.82495 6.83124 5.8508 6.84682C5.87664 6.8624 5.89913 6.88299 5.9169 6.90738C5.95308 6.95658 5.96855 7.01802 5.95997 7.0785C5.9514 7.13899 5.91946 7.1937 5.87102 7.23091L5.10276 7.81445L19.5538 18.7966C19.5822 18.8182 19.6053 18.8462 19.6212 18.8782C19.637 18.9103 19.6451 18.9456 19.645 18.9813C19.645 19.0171 19.6369 19.0525 19.6209 19.0846C19.6052 19.1167 19.5822 19.1447 19.5538 19.1666L15.8772 21.9537C15.8377 21.9838 15.7895 22 15.7398 22C15.6902 22 15.6421 21.9838 15.6025 21.9537L14.5507 21.1479C14.5146 21.1202 14.4873 21.0826 14.4723 21.0396C14.4574 20.9968 14.4553 20.9504 14.4664 20.9062C14.4777 20.8621 14.5014 20.8223 14.5351 20.7916C14.5687 20.761 14.6106 20.7408 14.6554 20.7336C14.6852 20.7294 14.7154 20.7312 14.7445 20.7387C14.7736 20.7463 14.8009 20.7596 14.8248 20.7778L15.7484 21.472L19.0414 18.9719L4.58156 7.99976C4.55283 7.97821 4.52955 7.95022 4.51362 7.91803C4.49768 7.88584 4.48952 7.85038 4.48979 7.81445C4.48989 7.7786 4.4982 7.74326 4.51411 7.71113C4.53002 7.67901 4.55311 7.65095 4.58156 7.62916L5.58748 6.8609H5.59631ZM4.71863 16.1083H8.39522C8.44453 16.111 8.49213 16.1274 8.53287 16.1554L13.2977 19.6202C13.322 19.6385 13.3424 19.6614 13.3578 19.6876C13.3732 19.7139 13.3831 19.7429 13.3872 19.7731C13.3932 19.8183 13.3861 19.8641 13.3664 19.9053C13.347 19.9465 13.3159 19.9811 13.2771 20.0048C13.2382 20.028 13.1934 20.039 13.1482 20.0364C13.103 20.0339 13.0597 20.018 13.0236 19.9908L8.32168 16.7059H5.40394L12.0623 21.4725L16.6626 17.9819C16.6865 17.9635 16.7138 17.95 16.743 17.9425C16.7723 17.9348 16.8026 17.933 16.8325 17.9374C16.8623 17.9417 16.8911 17.9518 16.9169 17.9673C16.9429 17.9828 16.9652 18.0034 16.9831 18.0277C17.0195 18.077 17.0351 18.1386 17.0265 18.1992C17.018 18.2598 16.9858 18.3146 16.9372 18.3519L12.1995 21.9537C12.1601 21.9837 12.1119 21.9999 12.0623 21.9999C12.0129 21.9999 11.9648 21.9837 11.9254 21.9537L4.58097 16.5253C4.54467 16.5245 4.50905 16.5153 4.47696 16.4982C4.44486 16.4812 4.41718 16.4569 4.39611 16.4274C4.37503 16.3978 4.36115 16.3637 4.35556 16.3278C4.34998 16.2919 4.35283 16.2551 4.36391 16.2206C4.37537 16.1862 4.39482 16.1551 4.42064 16.1297C4.44647 16.1043 4.47793 16.0854 4.51248 16.0745C4.54703 16.0635 4.58366 16.0609 4.61939 16.067C4.65512 16.0729 4.68952 16.0867 4.71863 16.1083Z" fill="white"/>
</svg>

<svg xmlns="http://www.w3.org/2000/svg" width="24" height="24" fill="none" viewBox="0 0 24 24">
    <path fill="#fff" d="M8.259 2.046a.23.23 0 0 1 .274 0l1.143.88a.23.23 0 0 1 .084.242.23.23 0 0 1-.105.142.23.23 0 0 1-.253-.014l-1.006-.769-3.293 2.5L19.553 16a.232.232 0 0 1 0 .37l-1.06.807a.226.226 0 0 1-.32-.047.234.234 0 0 1 .045-.324l.823-.62L4.581 5.212a.23.23 0 0 1-.067-.29.2.2 0 0 1 .068-.081L8.24 2.046zm3.667 0a.23.23 0 0 1 .274 0l7.353 5.432a.232.232 0 0 1-.002.374.23.23 0 0 1-.135.042H15.74a.24.24 0 0 1-.137-.046l-4.82-3.506a.23.23 0 0 1-.088-.152.24.24 0 0 1 .109-.232.23.23 0 0 1 .254.014l4.756 3.322h2.918l-6.66-4.767-4.609 3.5a.227.227 0 0 1-.359-.127.24.24 0 0 1 .085-.243zm-6.33 4.815a.226.226 0 0 1 .32.046.234.234 0 0 1-.045.324l-.768.583 14.45 10.983a.233.233 0 0 1 0 .37l-3.676 2.787a.226.226 0 0 1-.275 0l-1.051-.806a.234.234 0 0 1-.016-.356.23.23 0 0 1 .12-.058.23.23 0 0 1 .17.044l.923.694 3.293-2.5L4.581 8a.23.23 0 0 1-.067-.289.2.2 0 0 1 .068-.082l1.005-.768zm-.877 9.247h3.676a.27.27 0 0 1 .138.047l4.765 3.465a.23.23 0 0 1 .068.285.226.226 0 0 1-.343.085l-4.701-3.284H5.404l6.658 4.767 4.6-3.491a.22.22 0 0 1 .17-.045.23.23 0 0 1 .151.09.234.234 0 0 1-.046.325L12.2 21.954a.226.226 0 0 1-.274 0l-7.344-5.429a.23.23 0 0 1-.225-.197.23.23 0 0 1 .264-.26.2.2 0 0 1 .099.04"/>
</svg>
